icons/vscode-32.svg

<svg width="32" height="32" viewBox="0 0 32 32" fill="none" xmlns="http://www.w3.org/2000/svg">
<path d="M23.7975 1.0747C26.213 -1.35501 30.989 0.621595 30.8621 4.14292C30.9547 10.1039 31 16.0657 31 22.0267C31 23.7572 30.9974 25.4877 30.9904 27.2182C31.1729 31.0945 25.9493 33.5169 23.0798 30.9202C16.5312 25.5187 10.0339 20.0532 3.5892 14.5258C2.60648 13.683 1.62522 12.8383 0.644942 11.9926C0.285309 11.6822 0.0532488 11.2473 0.00808589 10.7742C-0.0370122 10.3009 0.107853 9.82981 0.409686 9.46398C0.711486 9.09846 1.14748 8.86581 1.62397 8.81594C2.10072 8.766 2.57657 8.90479 2.95471 9.19299C3.98457 9.9782 5.01412 10.7637 6.04156 11.5519C12.7809 16.7216 19.4693 21.9556 26.1048 27.2512C26.1207 27.2742 26.1782 27.2155 26.1429 27.2182C26.1359 25.4877 26.1333 23.7572 26.1333 22.0267C26.1333 16.273 26.1755 10.5187 26.2616 4.76505C23.557 7.08029 20.8262 9.31627 18.1466 11.5872C17.1609 12.4208 16.1879 13.251 15.2047 14.0947C14.8442 14.4037 14.3763 14.5689 13.8976 14.547C13.4192 14.5252 12.9706 14.3189 12.6477 13.9721C12.3248 13.6251 12.1538 13.1648 12.1701 12.6901C12.1864 12.2152 12.389 11.7657 12.7285 11.4341C13.6634 10.5218 14.5934 9.625 15.5396 8.72639C18.2765 6.12163 21.0723 3.61098 23.7975 1.0747Z" fill="black"/>
<path d="M4.10522 19.4689C4.81245 18.8 5.90732 18.8528 6.55033 19.5884C7.19329 20.3238 7.14018 21.4625 6.43315 22.1313L3.89564 24.5314C3.18859 25.2 2.09363 25.1469 1.45054 24.4119C0.807679 23.6765 0.858755 22.5377 1.56546 21.8689L4.10522 19.4689Z" fill="black"/>
</svg>

<svg xmlns="http://www.w3.org/2000/svg" width="32" height="32" viewBox="0 0 32 32"><path d="M23.797 1.075c2.416-2.43 7.192-.453 7.065 3.068a1146.49 1146.49 0 0 1 .128 23.075c.183 3.877-5.041 6.299-7.91 3.702A1323.535 1323.535 0 0 1 .645 11.993a1.847 1.847 0 0 1-.637-1.219c-.045-.473.1-.944.402-1.31a1.813 1.813 0 0 1 1.214-.648c.477-.05.953.089 1.331.377a1336.065 1336.065 0 0 1 23.15 18.058c.016.023.073-.036.038-.033a1141.785 1141.785 0 0 1 .119-22.453c-2.705 2.315-5.436 4.551-8.115 6.822-.986.834-1.959 1.664-2.942 2.508a1.882 1.882 0 0 1-1.307.452 1.818 1.818 0 0 1-1.25-.575 1.79 1.79 0 0 1-.478-1.282c.016-.475.219-.924.559-1.256.934-.912 1.864-1.809 2.811-2.708 2.736-2.604 5.532-5.115 8.257-7.651ZM4.105 19.469a1.685 1.685 0 0 1 2.445.119c.643.736.59 1.874-.117 2.543l-2.537 2.4a1.685 1.685 0 0 1-2.445-.119 1.852 1.852 0 0 1 .114-2.543l2.54-2.4Z"/></svg>
